!!!OTL: Zoule yipuo changyipuo
!!!ARE: Asia, China,ÿHubei Enshi
!! I, 383
!!!SCT: C2141
!!!YEM: Copyright 1995, estate of Helmut Schaffrath.
**kern
*ICvox
*Ivox
*M2/4
*k[]
*C:
{8dd
8dd
8ee
8dd
=1
4.cc
8a
=2
8dd
8dd
8ee
8dd
=3
2cc}
=4
{8a
4a
8cc
=5
8a
8g
8d
8e
=6
8g
4g
8a
=7
2g}
=8
{8e
8g
8e
8g
=9
4a
8dd
8b
=10
2a
=11
4.dd
8ee
=12
4.g
8a
=13
2cc}
=14
{8g
4g
8a
=15
4g
8d
8e
=16
8g
4g
8a
=17
8cc
16a
16cc
8dd
8a
=18
2g}
==
!!!AGN: Xiaodiao, Gege qima kanrenjia diao
!!!ONB: ESAC (Essen Associative Code) Database: SENGANSU
!!!AMT: simple duple
!!!AIN: vox
!!!EED: Helmut Schaffrath
!!!EEV: 1.0
*-
